X:1
T:[ID 6-44a]
T:[ID 6-44a]
T:Bezeichnung standardisiert: Menuett Menuet 9.
T:Urheber unbekannt Datum in der hier transkribierten schriftlichen Quelle: 1775
C:Urheber unbekannt
C:Datum in der hier transkribierten schriftlichen Quelle: 1775
L:1/8
M:3/4
K:G
V:1 treble 
V:1
 B,2 GB,FA | G2 BGAc | B2 AGFE | D2 CD B,2 | B,2 GB,FA | G2 BGAc | B2 B,2 A,2 | B,6 :: g2 egeg | %9
 f2 dfdf | e2 cece | d3 cde | f2 dfdf | e2 cece | d2 edAG | F6 :| %16

